X:1848
T:Bourree Liberte
C: Gisela Steinweg
Z:abc transcription Simon Wascher
N:please mail errors to: simon.wascher@chello.at
M:2/4
L:1/8
K:Dm
D2 A2|G3F|E3/2F/2 GA-|AG EF|
D2 A2|G3F|E3/2D/2 EF|1GF EF:|2GA ce||
|:f3/2e/2 dB-|Ba fd|c3/2d/2 eA-|AA ce|
f3/2e/2 dB-|Ba fa|c'a fb|ag fe:|


